!!!!SEGMENT: pl-wnifc--6782-n--001_ostrowski-jan--w-zakopanem-op-27-mazur-1.krn
!!!cenid: 18xx:4046
!!!COM: Ostrowski, Jan
!!!COM-rismID: pe50048393
!!!CDT: 1853-1899/02/16
!!!CNT: Polish
!!!GTL: W Zakopanem op. 27
!!!OTL: Mazur 1.
!!!PDT: 1896
!!!AGN:
!!!SMS-siglum: PL-Wnifc
!!!SMS-shelfmark: 6782/n
!!!SMS-shelfwork: 001 G
!!!SMS-variant:
!!!SMS-altvar:
!!!NIFC-rismSourceID: 1001160425
!!!NIFC-islandoraID:
!!!URL-pdf-islandora:
!!!URL-scan:
!!!ONB-nifc: UWAGA: w zbiorze 3 Mazury numerowane 001-003
!!!AIN: 1 piano
!!!key: D
**kern	**kern	**dynam
*part1	*part1	*part1
*staff2	*staff1	*
*>[A,B,B,C,C,D,E,E,F]	*>[A,B,B,C,C,D,E,E,F]	*
*>A	*>A	*
*I"Fortepian	*I"Fortepian	*
*I'	*I'	*
*Ipiano	*Ipiano	*
*ICklav	*ICklav	*
*clefF4	*clefG2	*
*k[f#c#]	*k[f#c#]	*
*D:	*D:	*
*M3/8	*M3/8	*
=1	=1	=1
!	!LO:TX:a:t=Wstęp.	!
4AA 4AAA^>/	4A^>/	p
.	(8qB/	.
8AA 8AAA^>/	(16A^>/LL)	.
.	16G#X/JJ)	.
=2	=2	=2
4AA 4AAA^>/	4A^>/	.
.	(8qB/	.
8AA 8AAA^>/	(16A^>/LL)	.
.	16G#X/JJ)	.
=3	=3	=3
!	!	!LO:HP:t=poco a poco cresc.
8AA 8AAA/	16.A/LL	<
.	32B/K	.
8AL 8E 8AA^\	16.c#/	.
.	32d/K	.
8AJ 8C# 8AA^\	16.e/	.
.	32f#/JJk	.
=4	=4	=4
.	(8qa/	.
8AL 8E 8AA^\	16.g/LL)	.
.	32f#/K	.
8A 8C# 8AA^\	16.e/	.
.	32f#/K	.
8AJ 8E 8AA^\	16.g/	.
.	32g#X/JJk	.
!!LO:LB:g=original
=5	=5	=5
4e 4c# 4A^\	4a^>/	.
.	(8qb/	.
8fn 8d 8A^\	(16a^>/LL)	.
.	16g#X/JJ)	.
=6	=6	=6
4e 4c# 4A^\	4a^>/	.
.	(8qb/	.
8fn 8d 8A^\	(16a^>/LL)	.
.	16g#X/JJ)	.
=7	=7	=7
8eL 8c# 8A^\	16.a\LL	.
.	32b\K	.
8g 8e 8A^\	16.cc#\	.
.	32dd\K	.
8f#J 8d 8A^\	16.ee\	<
.	32ff#\JJk	.
=8	=8	=8
.	(8qaa/	.
8eL 8c# 8A^\	16.gg\LL)	.
.	32ff#\K	.
8f# 8d 8A^\	16.gg\	.
.	32aa\K	.
8gJ 8e 8A^\	16.bb\	.
.	32ccc#\JJk	[
!!LO:LB:g=original
=9||	=9||	=9||
*>B	*>B	*
!	!LO:TX:a:t=Mazur.	!
8D\L	8ddd^\L	ff
.	(8qgg#X/	.
8d 8A 8F#\	8aa'\)	.
.	(8qgg#/	.
8dJ 8A 8F#^\	8aa'^\J)	.
=10	=10	=10
.	(8qaa/	.
8AA\L	16gg\LL)	.
.	16ff#\JJ	.
8c# 8A 8G\	8ee'\L	.
8c#J 8A 8G^\	8ee'^\J	.
=11	=11	=11
8D\L	8dd\L	.
.	(8qee#X/	.
8d 8A 8F#\	8ff#\)	.
.	(8qee#/	.
8dJ 8A 8F#\	8ff#^\J)	.
=12	=12	=12
.	(8qff#/	.
8FF#\L	16ee\LL)	.
.	16dd\JJ	.
8e 8A#X 8F#\	8cc#'\L	.
8eJ 8A# 8F#\	8cc#'^\J	.
=13	=13	=13
8GG\L	8b\L	.
.	(8qcc#/	.
8d 8B 8G\	8dd\)	.
.	(8qcc#/	.
8dJ 8B 8G\	8dd^\J)	.
!!LO:LB:g=original
=14	=14	=14
8D\L	8.a^\L	.
8d 8A 8F#\	.	.
.	16cc#\L	.
8dJ 8A 8F#\	16dd\	.
.	16ff#\JJ	.
=15	=15	=15
8C#\L	8.aa^\L	.
8A 8G 8E\	.	.
.	16ee\L	.
8AJ 8G 8E\	16gg\	.
.	16bb\JJ	.
=16	=16	=16
.	(8qbb/	.
8AA\L	16.aa\LL)	<
.	32gg#X\K	.
8A 8G 8E\	16.aa\	.
.	32gggn\K	.
8AJ 8G 8E\	16.eee\	.
.	32ccc#\JJk	[
=17	=17	=17
8D\L	8ddd^\L	.
.	(8qgg#X/	.
8d 8A 8F#\	8aa'\)	.
.	(8qgg#/	.
8dJ 8A 8F#\	8aa'^\J)	.
=18	=18	=18
.	(8qaa/	.
8AA\L	16gg\LL)	.
.	16ff#\JJ	.
8c# 8A 8G\	8ee'\L	.
8c#J 8A 8G\	8ee'^\J	.
!!LO:LB:g=original
=19	=19	=19
8D\L	8dd\L	.
.	(8qee#X/	.
8d 8A 8F#\	8ff#\)	.
.	(8qee#/	.
8dJ 8A 8F#\	8ff#^\J)	.
=20	=20	=20
.	(8qff#/	.
8FF#\L	16ee\LL)	.
.	16dd\JJ	.
8e 8A#X 8F#\	8cc#'\L	.
8eJ 8A# 8F#\	8cc#'^\J	.
=21	=21	=21
8GG\L	8b\L	.
.	(8qcc#/	.
8d 8B 8G\	8dd\)	.
.	(8qcc#/	.
8dJ 8B 8G\	8dd^\J)	.
=22	=22	=22
8D\L	8.a^\L	.
8d 8A 8F#\	.	.
.	16cc#\L	.
8dJ 8A 8F#\	16dd\	.
.	16ff#\JJ	.
=23	=23	=23
8AA\L	8.aa^\L	.
8c# 8A 8G\	.	.
.	16gg\L	.
8c#J 8A 8G\	16ff#\	.
.	16ee\JJ	.
=24	=24	=24
8dL 8A 8F# 8D\	8dd'\L	.
8dJ 8A 8F# 8D\	8dd'\J	.
!LO:TX:b:i:t=Fine.	!	!
8r	8r	.
!!LO:PB:g=original
=25:|!|:	=25:|!|:	=25:|!|:
*>C	*>C	*
8AL 8AA\	4.eee 4.ccc# 4.ee^\	f
8e 8c# 8A\	.	.
8eJ 8c# 8A\	.	.
=26	=26	=26
*	*^	*
8G#XL 8GG#X\	4.eee^/	16ddd\LL	.
.	.	16ccc#\JJ	.
8e 8d 8G#\	.	8bb\L	.
8eJ 8d 8G#\	.	8bb\J	.
=27	=27	=27	=27
8AL 8AA\	4.aa^/	8a'\L	.
8e 8c# 8A\	.	8cc#'\	.
8eJ 8c# 8A\	.	8ee'\J	.
=28	=28	=28	=28
8EL 8EE\	4ee^/	16dd\LL	.
.	.	16cc#\JJ	.
8e 8d 8G#X\	.	8b'>\L	.
8eJ 8d 8G#\	8r	8b'>\J	.
=29	=29	=29	=29
8AL 8AA\	4.a^/	8a\L	.
8e 8c# 8A\	.	8cc#'\	.
8eJ 8c# 8A\	.	8ee'\J	.
=30	=30	=30	=30
8EL 8EE\	4.ee^/	16dd\LL	.
.	.	16cc#\JJ	.
8e 8d 8G#X\	.	8b'>\L	.
8eJ 8d 8G#\	.	8b'>\J	.
=31	=31	=31	=31
8AA\L	4.a^/	8A'\L	.
8A 8E 8C#\	.	8c#'\	.
8AJ 8E 8C#\	.	8e'\J	.
!!LO:LB:g=original
=32	=32	=32	=32
8EL 8EE/	4e/	16d\LL	.
.	.	16c#\JJ	.
8G#X 8E/	.	8B'\L	.
8G#J 8E/	8r	8B'\J	.
*	*v	*v	*
=33	=33	=33
8AL 8AA\	4eee 4ccc# 4ee^\	.
8e 8c# 8A\	.	.
8eJ 8c# 8A\	8eee 8ccc# 8ee^\	.
=34	=34	=34
*	*^	*
8G#XL 8GG#X\	4.eee^/	16ddd\LL	.
.	.	16ccc#\JJ	.
8e 8d 8G#\	.	8bb'>\L	.
8eJ 8d 8G#\	.	8bb'>\J	.
*	*v	*v	*
=35	=35	=35
8AL 8AA\	8aaL 8a'^\	.
8e 8c# 8A\	8aa 8cc# 8a'^\	.
8eJ 8c#\	8aaJ 8ee 8a'^\	.
=36	=36	=36
*	*^	*
8EL 8EE\	4.ee^/	16dd\LL	.
.	.	16cc#\JJ	.
8e 8d 8G#X\	.	8b'>\L	.
8eJ 8d 8G#\	.	8b'>\J	.
=37	=37	=37	=37
8AL 8AA^\	8a^M/L	4a\	<
8G#X 8GG#X^\	16.g#X/L	.	.
.	32a/K	.	.
8GnJ 8GGn^\	16.b/	8a\	.
.	32cc#/JJk	.	.
!!LO:LB:g=original
=38	=38	=38	=38
.	(<8qee/	.	.
8F#L 8FF#^/	16.dd/LL)	8a'\L	.
.	32cc#/K	.	.
8E 8EE^/	16.dd/	8a'\	.
.	32ee/JK	.	.
8D#XJ 8DD#X^/	8ff#^/J	8bJ 8a'\	[
*	*v	*v	*
=39	=39	=39
8EL 8EE\	8.eeL 8.dd 8.g#X^\	.
8e 8d 8B\	.	.
.	16gg#X\L	.
8eJ 8d 8B\	16bb 16ee\	.
.	16gg#\JJ	.
=40	=40	=40
8eL 8c# 8A\	8aa'\L	.
8AJ 8AA\	8aaa:J 8eee: 8ccc#: 8aa':\	.
8r	8r	.
=41:|!	=41:|!	=41:|!
*>D	*>D	*
8D\L	8ddd^\L	ff
.	(8qgg#X/	.
8d 8A 8F#\	8aa'\)	.
.	(8qgg#/	.
8dJ 8A 8F#^\	8aa'^\J)	.
=42	=42	=42
.	(8qaa/	.
8AA\L	16gg\LL)	.
.	16ff#\JJ	.
8c# 8A 8G\	8ee'\L	.
8c#J 8A 8G^\	8ee'^\J	.
=43	=43	=43
8D\L	8dd\L	.
.	(8qee#X/	.
8d 8A 8F#\	8ff#\)	.
.	(8qee#/	.
8dJ 8A 8F#\	8ff#^\J)	.
!!LO:LB:g=original
=44	=44	=44
.	(8qff#/	.
8FF#\L	16ee\LL)	.
.	16dd\JJ	.
8e 8A#X 8F#\	8cc#'\L	.
8eJ 8A# 8F#\	8cc#'^\J	.
=45	=45	=45
8GG\L	8b\L	.
.	(8qcc#/	.
8d 8B 8G\	8dd\)	.
.	(8qcc#/	.
8dJ 8B 8G\	8dd^\J)	.
=46	=46	=46
8D\L	8.a^\L	.
8d 8A 8F#\	.	.
.	16cc#\L	.
8dJ 8A 8F#\	16dd\	.
.	16ff#\JJ	.
=47	=47	=47
8C#\L	8.aa^\L	.
8A 8G 8E\	.	.
.	16ee\L	.
8AJ 8G 8E\	16gg\	.
.	16bb\JJ	.
=48	=48	=48
.	(8qbb/	.
8AA\L	16.aa\LL)	<
.	32gg#X\K	.
8A 8G 8E\	16.aa\	.
.	32gggn\K	.
8AJ 8G 8E\	16.eee\	.
.	32ccc#\JJk	[
=49	=49	=49
8D\L	8ddd^\L	.
.	(8qgg#X/	.
8d 8A 8F#\	8aa'\)	.
.	(8qgg#/	.
8dJ 8A 8F#\	8aa'^\J)	.
!!LO:LB:g=original
=50	=50	=50
.	(8qaa/	.
8AA\L	16gg\LL)	.
.	16ff#\JJ	.
8c# 8A 8G\	8ee'\L	.
8c#J 8A 8G\	8ee'^\J	.
=51	=51	=51
8D\L	8dd\L	.
.	(8qee#X/	.
8d 8A 8F#\	8ff#\)	.
.	(8qee#/	.
8dJ 8A 8F#\	8ff#^\J)	.
=52	=52	=52
.	(8qff#/	.
8FF#\L	16ee\LL)	.
.	16dd\JJ	.
8e 8A#X 8F#\	8cc#'\L	.
8eJ 8A# 8F#\	8cc#'^\J	.
=53	=53	=53
8GG\L	8b\L	.
.	(8qcc#/	.
8d 8B 8G\	8dd\)	.
.	(8qcc#/	.
8dJ 8B 8G\	8dd^\J)	.
=54	=54	=54
8D\L	8.a^\L	.
8d 8A 8F#\	.	.
.	16cc#\L	.
8dJ 8A 8F#\	16dd\	.
.	16ff#\JJ	.
=55	=55	=55
8AA\L	8.aa^\L	.
8c# 8A 8G\	.	.
.	16gg\L	.
8c#J 8A 8G\	16ff#\	.
.	16ee\JJ	.
=56	=56	=56
8dL 8A 8F# 8D\	8dd'\L	.
8dJ 8A 8F# 8D\	8dd'\J	.
8r	8r	.
!!LO:PB:g=original
=57||	=57||	=57||
*>E	*>E	*
*k[f#]	*k[f#]	*
!	!LO:TX:a:t=Trio.	!LO:DY:t=mf amabile e espr.
8GG\L	4.ddd 4.bb 4.dd\	mf
8d 8B 8G\	.	.
8dJ 8B 8G\	.	.
=58	=58	=58
8C\L	4.eee 4.ccc 4.ee\	.
8c 8G 8E\	.	.
8cJ 8G 8E\	.	.
=59	=59	=59
8D\L	16aaLL 16a\	.
.	16bbJJ 16b\	.
8c 8A 8F#\	8cccL 8cc\	.
8cJ 8A 8F#\	8dddJ 8dd\	.
=60	=60	=60
8GG\L	8bbL 8b'\	.
8B 8G 8D\	8ggJ 8g'\	.
8BJ 8G 8D\	8r	.
=61	=61	=61
8EL 8EE\	4.bb 4.gg 4.b\	p <
8e 8B 8G\	.	.
8eJ 8B 8G\	.	.
=62	=62	=62
8AL 8AA\	4.ccc 4.aa 4.cc\	.
.	.	[
8e 8c 8A\	.	.
8eJ 8c 8A\	.	.
=63	=63	=63
8D#X\L	16ff#LL 16f#\	>
.	16ggJJ 16g\	.
8B 8A 8F#\	8aaL 8a\	.
8BJ 8A 8F#\	8bbJ 8b\	.
!!LO:LB:g=original
=64	=64	=64
8E\L	8ggL 8g'/	.
8B 8G\	8eeJ 8e'/	]
8BJ 8G\	8r	.
=65	=65	=65
8GG\L	(4ddd 4bb (4b\	f
8d 8B 8G\	.	.
8dJ 8B 8G\	8ggg 8bb 8gg\))	<
=66	=66	=66
8C\L	(4eee 4ccc (4ee\	.
8c 8G 8E\	.	.
8cJ 8G 8E\	8ccc 8cc\))	[[
=67	=67	=67
8D\L	16aaLL 16a\	>
.	16bbJJ 16b\	.
8c 8A 8F#\	8cccL 8cc\	.
8cJ 8A 8F#\	8dddJ 8dd\	.
=68	=68	=68
8GG\L	8bbL 8b'\	.
8B 8G 8D\	8ggJ 8g'\	]
8BJ 8G 8D\	8r	.
=69	=69	=69
8EL 8EE\	(4bb 4gg (4b\	p
8e 8B 8G\	.	.
8eJ 8B 8G\	8eee 8gg 8ee\))	<
=70	=70	=70
8AL 8AA\	(4ccc 4aa (4cc\	.
8e 8c 8A\	.	.
8eJ 8c 8A\	8aa 8a\))	[[
!!LO:LB:g=original
=71	=71	=71
8BB\L	16ff#LL 16f#\	>
.	16ggJJ 16g\	.
8B 8F# 8D#X\	8aaL 8a\	.
8BJ 8F# 8D#\	8bbJ 8b\	.
=72	=72	=72
8BL 8G 8E\	8eeL 8e\	.
8BJ 8G 8E\	8eee:J 8bb: 8gg: 8ee:\	]
8r	8r	.
=73:|!	=73:|!	=73:|!
*>F	*>F	*
*k[f#c#]	*k[f#c#]	*
8D\L	8ddd^\L	ff
.	(8qgg#X/	.
8d 8A 8F#\	8aa'\)	.
.	(8qgg#/	.
8dJ 8A 8F#^\	8aa'^\J)	.
=74	=74	=74
.	(8qaa/	.
8AA\L	16gg\LL)	.
.	16ff#\JJ	.
8c# 8A 8G\	8ee'\L	.
8c#J 8A 8G^\	8ee'^\J	.
=75	=75	=75
8D\L	8dd\L	.
.	(8qee#X/	.
8d 8A 8F#\	8ff#\)	.
.	(8qee#/	.
8dJ 8A 8F#\	8ff#^\J)	.
=76	=76	=76
.	(8qff#/	.
8FF#\L	16ee\LL)	.
.	16dd\JJ	.
8e 8A#X 8F#\	8cc#'\L	.
8eJ 8A# 8F#\	8cc#'^\J	.
!!LO:LB:g=original
=77	=77	=77
8GG\L	8b\L	.
.	(8qcc#/	.
8d 8B 8G\	8dd\)	.
.	(8qcc#/	.
8dJ 8B 8G\	8dd^\J)	.
=78	=78	=78
8D\L	8.a^\L	.
8d 8A 8F#\	.	.
.	16cc#\L	.
8dJ 8A 8F#\	16dd\	.
.	16ff#\JJ	.
=79	=79	=79
8C#\L	8.aa^\L	.
8A 8G 8E\	.	.
.	16ee\L	.
8AJ 8G 8E\	16gg\	.
.	16bb\JJ	.
=80	=80	=80
.	(8qbb/	.
8AA\L	16.aa\LL)	<
.	32gg#X\K	.
8A 8G 8E\	16.aa\	.
.	32gggn\K	.
8AJ 8G 8E\	16.eee\	.
.	32ccc#\JJk	[
=81	=81	=81
8D\L	8ddd^\L	.
.	(8qgg#X/	.
8d 8A 8F#\	8aa'\)	.
.	(8qgg#/	.
8dJ 8A 8F#\	8aa'^\J)	.
=82	=82	=82
.	(8qaa/	.
8AA\L	16gg\LL)	.
.	16ff#\JJ	.
8c# 8A 8G\	8ee'\L	.
8c#J 8A 8G\	8ee'^\J	.
!!LO:LB:g=original
=83	=83	=83
8D\L	8dd\L	.
.	(8qee#X/	.
8d 8A 8F#\	8ff#\)	.
.	(8qee#/	.
8dJ 8A 8F#\	8ff#^\J)	.
=84	=84	=84
.	(8qff#/	.
8FF#\L	16ee\LL)	.
.	16dd\JJ	.
8e 8A#X 8F#\	8cc#'\L	.
8eJ 8A# 8F#\	8cc#'^\J	.
=85	=85	=85
8GG\L	8b\L	.
.	(8qcc#/	.
8d 8B 8G\	8dd\)	.
.	(8qcc#/	.
8dJ 8B 8G\	8dd^\J)	.
=86	=86	=86
8D\L	8.a^\L	.
8d 8A 8F#\	.	.
.	16cc#\L	.
8dJ 8A 8F#\	16dd\	.
.	16ff#\JJ	.
=87	=87	=87
8AA\L	8.aa^\L	.
8c# 8A 8G\	.	.
.	16gg\L	.
8c#J 8A 8G\	16ff#\	.
.	16ee\JJ	.
=88	=88	=88
8dL 8A 8F# 8D\	8dd'\L	.
8dJ 8A 8F# 8D\	8dd'\J	.
8r	8r	.
==	==	==
*-	*-	*-
!!!system-decoration: {(*)}
!!!RDF**kern: > = above
!!!RDF**kern: < = below
!!!ENC: Andrzej Kubiczek
!!!END: 2022-08-14
!!!ENC: Andrzej Kubiczek
!!!END: 2022-08-17
!!!YEC: Copyright 2022 Narodowy Instytut Fryderyka Chopina (https://polishscores.org)
!!!YEM: Licence CC BY 4.0 (https://creativecommons.org/licenses/by/4.0)
